X:1
T:Let the Good Seed Take Root
T:Let the Good Seed Take Root
T:George Nathaniel Fenn
T:Jennie Wilson, 1904
T:Public Domain Courtesy of the Cyber Hymnal™
T:Public Domain Courtesy of the Cyber Hymnal™
C:George Nathaniel Fenn
Z:Public Domain
Z:Courtesy of the Cyber Hymnal™
%%score ( 1 2 ) ( 3 4 )
L:1/8
Q:1/4=87
M:6/8
K:G
V:1 treble 
V:2 treble 
V:3 bass 
V:4 bass 
V:1
 [Gd] | [Gd][G^c][Gd] [GB][FA]G | [EA][EG][CE] [B,D]2 [B,D] | [B,D][DG][DA] [DB][^DA][EG] | %4
w: 1.~The|Mas- ter is sow- ing the|good seed of truth, With|hands that are pa- tient and|
w: 2.~Are|sin- ful de- sires grow- ing|rank in your heart, As|bane- ful weeds cum- ber the|
w: 3.~O|let the good seed in the|sun- shine of love, And|wa- tered by hea- ven- ly|
 ([F-A]3 [Fd]2) [Fd] | [Gd][G^c][Gd] [GB][FA]G | [EA][EG][CE] [Ec]2 [Ec] | [DB][FA]G [FA][DG][DF] | %8
w: kind; * A-|like on the fer- tile and|bleak place it falls, What|soil in your heart will it|
w: ground? * Does|love of the world, with its|fol- ly and pride, With-|in your heart’s gar- den a-|
w: dew, * Bring|forth in your life the rich|fruit- age of grace, That|Je- sus with glad- ness can|
 [DG]3- [DG]2 ||"^Refrain" [DG]/[DA]/ | [GB][GB][GB] [Fd][Fd][Fc] | [GB]2 [Fd] [GA]G[DG] | %12
w: find? *||||
w: bound? *|Let the|good seed take root in your|heart, my bro- ther, And|
w: view. *||||
 [DF][EG][FA] [F^c][Ed][Fe] | [Fd]3- [Fd]2 [Fd] | [Fd][GB][DA] [DG][DA][GB] | %15
w: |||
w: bring forth a glo- ri- ous|yield; * If|nour- ished in faith will a|
w: |||
 [Gc][Gc][Gd] !fermata![Ge]2 [G^c]/[Gc]/ | [Gd][GB]G [DF][DB][DA] | [DG]3- [DG]2 |] %18
w: |||
w: fruit- age di- vine In the|har- vest of life be re-|vealed. *|
w: |||
V:2
 x | x5 G | x6 | x6 | x6 | x5 G | x6 | x2 G x3 | x5 || x | x6 | x4 G x | x6 | x6 | x6 | x6 | %16
 x2 G x3 | x5 |] %18
V:3
 [G,B,] | [G,B,][G,^A,][G,B,] [G,D][D,D][E,B,] | [C,C][C,C][C,G,] [G,,G,]2 [G,,G,] | %3
 [G,,G,][B,,G,][D,F,] G,[F,B,][E,^C] | ([D,-D]3 [D,A,]2) [D,C] | %5
 [G,B,][G,^A,][G,B,] [G,D][D,D][B,,D] | [C,C][C,C][C,C] [C,G,]2 [C,G,] | %7
 [D,G,][D,C][E,B,] [D,D][D,B,][D,C] | [G,,B,]3- [G,,B,]2 || [G,B,]/[G,C]/ | %10
 [G,D][G,D][G,D] [D,C][D,B,][D,A,] | [E,G,]2 [D,C] [G,B,][G,B,][G,B,] | %12
 A,A,[A,D] [A,E][A,D][A,^C] | [D,D]3- [D,D]2 [D,A,] | [D,A,][E,G,][F,C] [G,B,][F,A,][=F,G,] | %15
 [E,G,][E,A,][D,B,] !fermata![C,C]2 [E,^A,]/[E,A,]/ | [D,B,][D,G,][D,B,] [D,C][D,D][D,C] | %17
 [G,,B,]3- [G,,B,]2 |] %18
V:4
 x | x6 | x6 | x3 G, x2 | x6 | x6 | x6 | x6 | x5 || x | x6 | x6 | A,A, x4 | x6 | x6 | x6 | x6 | %17
 x5 |] %18

